packages/icons/assets/Node.svg

<svg xmlns="http://www.w3.org/2000/svg" fill="none" viewBox="0 0 16 16"><path fill="#414141" d="M0 15V1h16v14H0zm1-1h14V2H1v12zm7-3.8291l-2.78101 1.3-3.23498-1.51582V5.93799l3.23498-1.40698.17701.07788 2.59997 1.12817L10.767 4.53101l.177.07788 3.066 1.3291v4.01806l-3.244 1.51585L8 10.1709zm2.324.0791V7.93994l-1.86099-.88696v2.32397L10.324 10.25zm-7.43496-.88306L4.771 10.25V7.93994l-1.88196-.8999v2.3269zM11.228 7.94897V10.249l1.883-.87888V7.11206l-1.883.83691zm-5.55295 0V10.249l1.86194-.87009V7.12012l-1.86194.82885zm3.328-1.6499L10.781 7.146l1.8311-.8169-1.8421-.80005-1.76695.77002zm-5.5531 0l1.77808.84693 1.83203-.8169-1.84204-.80005-1.76807.77002z"/></svg>

<svg width="16" height="16" viewBox="0 0 16 16" fill="none" xmlns="http://www.w3.org/2000/svg">
<path d="M0 15V1H16V15H0ZM1 14H15V2H1V14ZM8 10.1709L5.21899 11.4709L1.98401 9.95508V5.93799L5.21899 4.53101L5.396 4.60889L7.99597 5.73706L10.767 4.53101L10.944 4.60889L14.01 5.93799V9.95605L10.766 11.4719L8 10.1709ZM10.324 10.25V7.93994L8.46301 7.05298V9.37695L10.324 10.25ZM2.88904 9.36694L4.771 10.25V7.93994L2.88904 7.04004V9.36694ZM11.228 7.94897V10.249L13.111 9.37012V7.11206L11.228 7.94897ZM5.67505 7.94897V10.249L7.53699 9.37891V7.12012L5.67505 7.94897ZM9.00305 6.29907L10.781 7.146L12.6121 6.3291L10.77 5.52905L9.00305 6.29907ZM3.44995 6.29907L5.22803 7.146L7.06006 6.3291L5.21802 5.52905L3.44995 6.29907Z" fill="#414141"/>
</svg>
